Origami/64x64/apps/haguichi.svg

<svg width="64" height="64" version="1" xmlns="http://www.w3.org/2000/svg">
 <path d="m4.0000004 56.200069v1.999971c0 1.549978 1.2495821 2.79996 2.80076 2.79996h50.39928c1.549977 0 2.79996-1.249982 2.79996-2.79996v-1.999971c0 1.549977-1.249983 2.79996-2.79996 2.79996h-50.39928c-1.5503779 0-2.79996-1.249983-2.79996-2.79996z" style="opacity:.2"/>
 <rect transform="matrix(0,-1,-1,0,0,0)" x="-60" y="-60" width="55.999" height="55.999" rx="2.8" ry="2.8" style="fill:#ff4646"/>
 <g transform="matrix(2.0779703 0 0 2.0407708 -1.2466846 .34811336)" style="opacity:.2">
  <path d="m17.444 25.8h6.2562l-8.6625-8.82-3.3688 2.45z"/>
  <path d="m17.444 6.2h6.2562l-12.031 13.23-3.369-3.43z"/>
 </g>
 <g transform="matrix(2.0779703 0 0 2.0407708 -1.2466846 -.65216406)">
  <path d="m17.444 25.8h6.2562l-8.6625-8.82-3.3688 2.45z" style="fill:#ffabab"/>
  <path d="m17.444 6.2h6.2562l-12.031 13.23-3.369-3.43z" style="fill:#ffffff"/>
 </g>
 <path d="m6.8007812 4c-1.5511778 0-2.8007812 1.2496034-2.8007812 2.8007812v1.0019532c0-1.5511778 1.2496034-2.8007813 2.8007812-2.8007813h50.398438c1.549977 0 2.800781 1.2496035 2.800781 2.8007813v-1.0019532c0-1.5511777-1.250804-2.8007812-2.800781-2.8007812h-50.398438z" style="fill:#ffffff;opacity:.2"/>
</svg>

<svg xmlns="http://www.w3.org/2000/svg" width="64" height="64" version="1">
 <path style="opacity:0.2" d="m 4.0000004,56.200069 0,1.999971 c 0,1.549978 1.2495821,2.79996 2.80076,2.79996 L 57.20004,61 C 58.750017,61 60,59.750018 60,58.20004 l 0,-1.999971 c 0,1.549977 -1.249983,2.79996 -2.79996,2.79996 l -50.3992796,0 c -1.5503779,0 -2.79996,-1.249983 -2.79996,-2.79996 z"/>
 <rect style="fill:#ff4646" width="55.999" height="55.999" x="-60" y="-60" rx="2.8" ry="2.8" transform="matrix(0,-1,-1,0,0,0)"/>
 <g style="opacity:0.2" transform="matrix(2.0779703,0,0,2.0407708,-1.2466846,0.34811336)">
  <path d="m 17.444,25.8 6.2562,0 -8.6625,-8.82 -3.3688,2.45 z"/>
  <path d="m 17.444,6.2 6.2562,0 L 11.6692,19.43 8.3002,16 Z"/>
 </g>
 <g transform="matrix(2.0779703,0,0,2.0407708,-1.2466846,-0.65216406)">
  <path style="fill:#ffabab" d="m 17.444,25.8 6.2562,0 -8.6625,-8.82 -3.3688,2.45 z"/>
  <path style="fill:#ffffff" d="m 17.444,6.2 6.2562,0 L 11.6692,19.43 8.3002,16 Z"/>
 </g>
 <path style="opacity:0.2;fill:#ffffff" d="M 6.8007812 4 C 5.2496034 4 4 5.2496034 4 6.8007812 L 4 7.8027344 C 4 6.2515566 5.2496034 5.0019531 6.8007812 5.0019531 L 57.199219 5.0019531 C 58.749196 5.0019531 60 6.2515566 60 7.8027344 L 60 6.8007812 C 60 5.2496035 58.749196 4 57.199219 4 L 6.8007812 4 z"/>
</svg>
